X:1
T:Godfrey, 11.11.11.11
T:Godfrey, 11.11.11.11
T:John Allison West, 1900
T:Public Domain Courtesy of the Cyber Hymnal™
C:John Allison West, 1900
Z:Public Domain
Z:Courtesy of the Cyber Hymnal™
%%score ( 1 2 ) ( 3 4 )
L:1/8
Q:1/4=112
M:4/4
K:Eb
V:1 treble 
V:2 treble 
V:3 bass 
V:4 bass 
V:1
 B3 G E2 [DF]2 | [EG]4 [EB]4 | [Ec]2 [Ee]2 [Fd]2 [Ec]2 | z3 F B2 A2 | [EG]2 [FB]2 E2 [DF]2 | %5
 (G2 A2) (B2 c2) | [Fd]2 (cB) [Fc]2 [EF]2 | [DB]6 z2 x3 | [_GB]2 [G_d]2 [EG]2 [FA]2 | %9
 [_GB]4 [G_d]4 | [A_d]2 (_cB) [Ac]2 [Ad]2 | B8 | [GB]2 [EG]2 [EA]2 [EB]2 | ([Ec]2 [Fd]2) e4 | %14
 [EG]2 [=EG]2 [FA]2 (GF) | [B,E]8 |] %16
V:2
 B3 G E2 x2 | x8 | x8 | [DB]6 x2 | x4 E2 x2 | E4 E4 | x2 F2 x4 | x11 | x8 | x8 | x2 A2 x4 | %11
 (_G4 A4) | x8 | x4 (E2 F2) | x6 D2 | x8 |] %16
V:3
 B,3 G, E,2 [B,,B,]2 | [E,B,]4 [G,B,]4 | A,2 [G,B,]2 [F,B,]2 [F,=A,]2 | z3 A, G,2 F,2 | %4
 [E,B,]2 [D,F,]2 [C,G,]2 [B,,B,]2 | B,4 B,4 | [F,B,]2 (ED) [F,E]2 [F,=A,]2 | z3 x8 | %8
 [_G,,_D]2 [B,,B,]2 [E,B,]2 [_D,D]2 | [_G,,_G,_D]4 [B,,B,D]4 | [A,E]2 [A,E]2 [F,,F,_D]4 | %11
 (D2 B,2 C2 D2) | [E,E]2 [E,B,]2 [F,,F,E]2 [G,,G,_D]2 | (C2 _C2) ([G,,G,B,]2 [F,,F,=A,]2) | %14
 [B,,B,]2 [B,,_D]2 [B,,C]2 (B,A,) | [E,,E,G,]8 |] %16
V:4
 B,3 G, E,2 x2 | x8 | =A,2 x6 | [B,,B,]6 x2 | x8 | (E,2 F,2) (G,2 _G,2) | x2 F,2 x4 | %7
 [B,,B,]6 C, B,,2 A,,2 | x8 | x8 | A,,4 x4 | [_G,,_G,]4 [F,,F,]4 | E,,4 x4 | [=A,,=A,]4 x4 | %14
 x6 B,,2 | x8 |] %16

